app/client/src/assets/icons/blueprintjs/20px/helper-management.svg

<svg xmlns="http://www.w3.org/2000/svg" xml:space="preserve" viewBox="0 0 20 20"><path d="M17 10h-3v3h3v-3zm0 4h-3v3h3v-3zm0-8h-3v3h3V6zm2-6H1C.4 0 0 .4 0 1v18c0 .5.4 1 1 1h18c.5 0 1-.5 1-1V1c0-.6-.5-1-1-1zm-1 18H2V2h16v16zm-9-4H6v3h3v-3zm4 0h-3v3h3v-3z"/></svg>

<?xml version="1.0" encoding="utf-8"?>
<!-- Generator: Adobe Illustrator 17.1.0, SVG Export Plug-In . SVG Version: 6.00 Build 0)  -->
<!DOCTYPE svg PUBLIC "-//W3C//DTD SVG 1.1//EN" "http://www.w3.org/Graphics/SVG/1.1/DTD/svg11.dtd">
<svg version="1.1" id="Layer_1" xmlns:sketch="http://www.bohemiancoding.com/sketch/ns"
	 xmlns="http://www.w3.org/2000/svg" xmlns:xlink="http://www.w3.org/1999/xlink" x="0px" y="0px" viewBox="0 0 20 20"
	 enable-background="new 0 0 20 20" xml:space="preserve">
<title>Shape</title>
<desc>Created with Sketch.</desc>
<g id="Page-1" sketch:type="MSPage">
	<g id="Artboard-1" sketch:type="MSArtboardGroup">
		<path id="Shape" sketch:type="MSShapeGroup" d="M17,10h-3v3h3V10L17,10z M17,14h-3v3h3V14L17,14z M17,6h-3v3h3V6L17,6z M19,0H1
			C0.4,0,0,0.4,0,1v18c0,0.5,0.4,1,1,1h18c0.5,0,1-0.5,1-1V1C20,0.4,19.5,0,19,0L19,0z M18,18H2V2h16V18L18,18z M9,14H6v3h3V14L9,14
			z M13,14h-3v3h3V14L13,14z"/>
	</g>
</g>
</svg>
